src/images/cafew-logo.svg

<svg width="235" height="90" viewBox="0 0 235 90" fill="none" xmlns="http://www.w3.org/2000/svg">
<path fill-rule="evenodd" clip-rule="evenodd" d="M92.6917 82.0033C87.4115 90.232 60.9144 89.4822 49.9492 89.4822C38.9854 89.4822 14.8211 89.4822 7.20677 82.0033C0.507717 75.3406 0 52.0112 0 44.7411C0 37.4697 0.507717 14.1402 7.20677 7.57447C14.8211 0 38.9854 0 49.9492 0C60.9144 0 85.0774 0 92.6917 7.57447C99.3921 14.1402 100 37.4683 100 44.7411C100 52.0112 99.3921 75.3406 92.6917 82.0033ZM87.4115 12.827C82.8421 8.28154 64.3655 7.47482 49.9492 7.47482C35.533 7.47482 17.055 8.28154 12.5885 12.827C9.03453 16.3611 7.41122 32.7221 7.41122 44.7411C7.41122 56.7587 9.0359 73.1211 12.5885 76.6551C17.055 81.1979 35.533 82.107 49.9492 82.107C64.3655 82.107 82.8421 81.1979 87.4115 76.6551C90.9655 73.1197 92.4872 56.7587 92.4872 44.7411C92.4886 32.7221 90.9655 16.3611 87.4115 12.827ZM79.6956 54.4354H20.2028L16.5473 25.7537L34.7206 38.2764L49.9492 23.0278L65.2794 38.2777L83.4527 25.7551L79.6956 54.4354ZM78.2754 65.6463H21.7259L20.8121 59.385H79.0878L78.2754 65.6463ZM64.6715 45.7512L49.9492 31.2083L35.2297 45.7512L24.0614 37.8737L25.3801 48.2765H74.5183L75.9386 37.8737L64.6715 45.7512Z" fill="#FFFCF9"/>
<path d="M117.092 48.0332C117.092 54.6777 120.467 58.5273 126.303 58.5273C129.098 58.5273 131.365 57.6484 132.982 56.0312C134.178 54.8184 134.951 53.2715 134.951 52.1641C134.951 51.4785 134.547 51.0391 133.826 51.0391C133.264 51.0391 132.947 51.3203 132.578 52.0938C131.436 54.8535 129.256 56.2773 126.391 56.2773C122.031 56.2773 119.553 53.3066 119.553 48.0508V43.9902C119.553 38.752 122.014 35.7461 126.338 35.7461C129.15 35.7461 131.26 37.2227 132.473 40C132.859 40.8262 133.229 41.0898 133.809 41.0898C134.459 41.0898 134.898 40.668 134.898 39.9297C134.898 38.8926 134.143 37.3105 132.947 36.0977C131.312 34.3926 129.08 33.5137 126.268 33.5137C120.467 33.5137 117.092 37.3984 117.092 44.0078V48.0332ZM139.047 58.2285C139.715 58.2285 140.119 57.9121 140.383 57.0859L142.65 50.4414H151.949L154.217 57.0859C154.498 57.9121 154.885 58.2285 155.553 58.2285C156.256 58.2285 156.73 57.8066 156.73 57.1562C156.73 56.875 156.66 56.5938 156.555 56.2949L149.014 35.2363C148.662 34.3047 148.17 33.8477 147.309 33.8477C146.43 33.8477 145.955 34.3047 145.604 35.2363L138.045 56.2949C137.939 56.5938 137.887 56.875 137.887 57.1562C137.887 57.8242 138.344 58.2285 139.047 58.2285ZM143.354 48.4199L147.256 37.0469H147.361L151.246 48.4199H143.354ZM162.004 58.1758C162.76 58.1758 163.252 57.6484 163.252 56.8223V47.2949H172.551C173.359 47.2949 173.869 46.873 173.869 46.1875C173.869 45.4844 173.359 45.0449 172.551 45.0449H163.252V36.2734H173.482C174.291 36.2734 174.801 35.8516 174.801 35.166C174.801 34.4629 174.291 34.0234 173.482 34.0234H163.199C161.477 34.0234 160.791 34.6738 160.791 36.2559V56.8223C160.791 57.6484 161.248 58.1758 162.004 58.1758ZM178.861 55.7852C178.861 57.3672 179.547 58 181.27 58H191.764C192.572 58 193.082 57.5781 193.082 56.8926C193.082 56.1895 192.572 55.75 191.764 55.75H181.322V46.8555H191.148C191.957 46.8555 192.467 46.4336 192.467 45.748C192.467 45.0625 191.957 44.623 191.148 44.623H181.322V36.2734H191.781C192.59 36.2734 193.1 35.8516 193.1 35.166C193.1 34.4629 192.59 34.0234 191.781 34.0234H181.27C179.547 34.0234 178.861 34.6738 178.861 36.2559V55.7852ZM207.162 54.8184C207.865 57.332 209.324 58.1582 211.363 58.1582C213.385 58.1582 214.844 56.9629 215.406 54.8184L218.219 44.2012H218.465L221.225 54.6074C221.875 57.1035 223.299 58.1582 225.496 58.1582C227.57 58.1582 228.871 57.0684 229.504 54.8184L233.898 38.875C234.039 38.4004 234.145 37.5566 234.145 36.959C234.145 35.1133 232.791 33.8301 230.84 33.8301C228.977 33.8301 227.834 35.0078 227.342 37.5391L224.969 49.0352H224.635L221.84 37.3984C221.242 34.9023 220.188 33.8301 218.324 33.8301C216.461 33.8301 215.477 34.8496 214.844 37.3984L212.066 49.0352H211.75L209.201 37.5391C208.639 34.9551 207.584 33.8301 205.738 33.8301C203.752 33.8301 202.398 35.1309 202.398 37.0293C202.398 37.6094 202.521 38.4883 202.768 39.3496L207.162 54.8184Z" fill="#FFFCF9"/>
</svg>

<svg xmlns="http://www.w3.org/2000/svg" width="235" height="90" fill="none" viewBox="0 0 235 90"><path fill="#FFFCF9" fill-rule="evenodd" d="M92.692 82.003c-5.28 8.229-31.778 7.48-42.743 7.48-10.964 0-35.128 0-42.742-7.48C.507 75.341 0 52.011 0 44.741c0-7.271.508-30.6 7.207-37.167C14.82 0 38.985 0 49.949 0c10.965 0 35.128 0 42.743 7.574C99.392 14.14 100 37.468 100 44.741c0 7.27-.608 30.6-7.308 37.262zm-5.28-69.176c-4.57-4.545-23.047-5.352-37.463-5.352s-32.894.807-37.36 5.352C9.035 16.361 7.41 32.722 7.41 44.741c0 12.018 1.625 28.38 5.178 31.914 4.466 4.543 22.944 5.452 37.36 5.452s32.893-.91 37.463-5.452c3.553-3.535 5.075-19.896 5.075-31.914.002-12.019-1.521-28.38-5.075-31.914zm-7.716 41.608H20.203l-3.656-28.681 18.174 12.522 15.228-15.248 15.33 15.25 18.174-12.523-3.757 28.68zm-1.42 11.211h-56.55l-.914-6.261h58.276l-.813 6.261zM64.67 45.751L49.95 31.208 35.23 45.751l-11.168-7.877 1.32 10.402h49.137l1.42-10.402-11.267 7.877z" clip-rule="evenodd"/><path fill="#FFFCF9" d="M117.092 48.033c0 6.645 3.375 10.494 9.211 10.494 2.795 0 5.062-.879 6.679-2.496 1.196-1.213 1.969-2.76 1.969-3.867 0-.686-.404-1.125-1.125-1.125-.562 0-.879.281-1.248 1.055-1.142 2.76-3.322 4.183-6.187 4.183-4.36 0-6.838-2.97-6.838-8.226v-4.06c0-5.239 2.461-8.245 6.785-8.245 2.812 0 4.922 1.477 6.135 4.254.386.826.756 1.09 1.336 1.09.65 0 1.089-.422 1.089-1.16 0-1.037-.755-2.62-1.951-3.832-1.635-1.705-3.867-2.584-6.679-2.584-5.801 0-9.176 3.884-9.176 10.494v4.025zm21.955 10.195c.668 0 1.072-.316 1.336-1.142l2.267-6.645h9.299l2.268 6.645c.281.826.668 1.142 1.336 1.142.703 0 1.177-.421 1.177-1.072 0-.281-.07-.562-.175-.861l-7.541-21.059c-.352-.931-.844-1.388-1.705-1.388-.879 0-1.354.457-1.705 1.388l-7.559 21.059c-.106.299-.158.58-.158.861 0 .668.457 1.072 1.16 1.072zm4.307-9.808l3.902-11.373h.105l3.885 11.373h-7.892zm18.65 9.756c.756 0 1.248-.528 1.248-1.354v-9.527h9.299c.808 0 1.318-.422 1.318-1.108 0-.703-.51-1.142-1.318-1.142h-9.299v-8.772h10.23c.809 0 1.319-.421 1.319-1.107 0-.703-.51-1.143-1.319-1.143h-10.283c-1.722 0-2.408.65-2.408 2.233v20.566c0 .826.457 1.354 1.213 1.354zm16.857-2.39c0 1.581.686 2.214 2.409 2.214h10.494c.808 0 1.318-.422 1.318-1.107 0-.703-.51-1.143-1.318-1.143h-10.442v-8.895h9.826c.809 0 1.319-.421 1.319-1.107 0-.685-.51-1.125-1.319-1.125h-9.826v-8.35h10.459c.809 0 1.319-.421 1.319-1.107 0-.703-.51-1.143-1.319-1.143H181.27c-1.723 0-2.409.65-2.409 2.233v19.53zm28.301-.968c.703 2.514 2.162 3.34 4.201 3.34 2.022 0 3.481-1.195 4.043-3.34l2.813-10.617h.246l2.76 10.406c.65 2.496 2.074 3.551 4.271 3.551 2.074 0 3.375-1.09 4.008-3.34l4.394-15.943c.141-.475.247-1.318.247-1.916 0-1.846-1.354-3.129-3.305-3.129-1.863 0-3.006 1.178-3.498 3.71l-2.373 11.495h-.334l-2.795-11.637c-.598-2.496-1.652-3.568-3.516-3.568-1.863 0-2.847 1.02-3.48 3.568l-2.778 11.637h-.316l-2.549-11.496c-.562-2.584-1.617-3.709-3.463-3.709-1.986 0-3.34 1.3-3.34 3.2 0 .58.123 1.458.37 2.32l4.394 15.468z"/></svg>
